X: 12018
T: Er Pasker
R: mazurka
M: 3/4
K: Edorian
Bc/B/ AF B/B/A|Bc/B/ AF B/B/A|Bc/B/ AG/A/ F2|
F/B/c/B/ AF BA|Bc/B/ AF B/B/A|Bc/B/ AG/A/ F2||
ed/c/ Ac B2|1 A/B/B/A/ G>F E2:|2 A/B/B/A/ G>F E{F}G/A/||

